assets/img/icon-arrowright.svg

<?xml version="1.0" encoding="UTF-8"?>
<svg width="14px" height="12px" viewBox="0 0 14 12" version="1.1" xmlns="http://www.w3.org/2000/svg" xmlns:xlink="http://www.w3.org/1999/xlink">
    <!-- Generator: Sketch 47.1 (45422) - http://www.bohemiancoding.com/sketch -->
    <title>icon-arrowright</title>
    <desc>Created with Sketch.</desc>
    <defs>
        <path d="M13.7071328,5.26740535 L8.76776515,0.151865957 C8.57227039,-0.0506219858 8.25627885,-0.0506219858 8.06078409,0.151865957 C7.86528932,0.353836029 7.86528932,0.681648991 8.06078409,0.884136934 C8.06078409,0.884136934 12.5176647,5.48594733 12.5156648,5.48594733 L0.499986608,5.48594733 C0.223994,5.48594733 0,5.71795397 0,6.00381931 C0,6.29020251 0.223994,6.52169128 0.499986608,6.52169128 L12.5156648,6.52169128 L8.06078409,11.1157336 C7.86528932,11.3182215 7.86528932,11.6460345 8.06078409,11.8485224 C8.25627885,12.0504925 8.57277037,12.0504925 8.76776515,11.8485224 L13.7071328,6.73246518 C14.0976224,6.32748929 14.0976224,5.67186337 13.7071328,5.26740535 L13.7071328,5.26740535 Z" id="path-1"></path>
    </defs>
    <g id="Page-1" stroke="none" stroke-width="1" fill="none" fill-rule="evenodd">
        <g id="design" transform="translate(-1271.000000, -1566.000000)">
            <g id="Web-Elements/Buttons/View-all-Copy" transform="translate(1032.000000, 1556.000000)">
                <g id="icon-arrowright" transform="translate(239.000000, 10.000000)">
                    <mask id="mask-2" fill="white">
                        <use xlink:href="#path-1"></use>
                    </mask>
                    <use id="↳-✏️--Title-Copy" fill="#9A9A9A" xlink:href="#path-1"></use>
                    <g id="↳-🎨-Color" mask="url(#mask-2)" fill="#E44232">
                        <g transform="translate(-3.000000, -10.000000)" id="Color">
                            <rect x="0" y="0" width="23" height="30"></rect>
                        </g>
                    </g>
                </g>
            </g>
        </g>
    </g>
</svg>

<svg width="14" height="12" viewBox="0 0 14 12" xmlns="http://www.w3.org/2000/svg" xmlns:xlink="http://www.w3.org/1999/xlink"><title>icon-arrowright</title><defs><path d="M13.707 5.267L8.767.152c-.195-.203-.51-.203-.706 0-.195.202-.195.53 0 .732 0 0 4.458 4.602 4.456 4.602H.5c-.276 0-.5.232-.5.518 0 .286.224.518.5.518h12.016L8.06 11.116c-.195.202-.195.53 0 .733.196.2.513.2.708 0l4.94-5.118c.39-.405.39-1.06 0-1.465z" id="a"/></defs><g fill="none" fill-rule="evenodd"><mask id="b" fill="#fff"><use xlink:href="#a"/></mask><use fill="#9A9A9A" xlink:href="#a"/><path d="M0 0h23v30H0z" transform="translate(-3 -10)" mask="url(#b)" fill="#E44232"/></g></svg>
